!!key: tele-40-10-Fan-Viv-04-Flute
!!!COM: Telemann, Georg Philipp
!!!CDT: 1681/03/14-1767/06/25
!!!CBL: Magdeburg
!!!CDL: Hamburg
!!!CNT: German
!!!TWV: 40:10
!!!TWV-genre: 40
!!!TWV-work: 10
!!!OPR: 12 Fantasias for transverse flute without bass
!!!OTL: Fantasia 9
!!!OMD: Vivace
!!!OMV: 4
!!!ODT: ca. 1732–1733
!!!AST: Late Baroque
!!!AGN: Fantasia
!!!AMT: Simple duple
!!!AIN: Transverse flute
**kern
*ICww
*Iflt
*clefG2
*k[f#c#g#d#]
*E:
*M2/4
16gg#LL
16aaJJ
=
8b
8e
8e
8e
=
16e
16d#
4e
16d#
16c#
=
8b
8e
!TODO: trill +
4a
=
4g#
8r
8f#
=
8e
16g#
16e
8f#
8a
=
8g#
16b
16g#
8a#X
8cc#
!!LO:LB:g=original
=
8b
16d#
16b
8c#
8e
=
8d#
8c#
8g#
8r
=
8f#
16e
16d#
8e
8c#
=
!TODO: trill +
4b
16d#
16c#
16d#
16c#
=
8b
8b
8b
8b
=
!TODO: trill +
4b
16d#
16c#
16d#
16c#
!!LO:LB:g=original
=
8b
(8e
8d#)
(8g#
=
8f#)
16g#
16a#X
8b
8b
=
4f#
!TODO: trill +
4a#X
=
4.b
=:||:
16d#
16e
=
8f#
8d#
8e
8cc#
=
(4c#
8b#X)
8a
=
8g#
16f#
16e
8f#
8d#
!!LO:LB:g=original
=
(4d#
8c#)
8g#
=
8c#
16e
16d#
8e
8d#
=
(4d#
8c#)
8c#
=
8c#
8e
8g#
8b#X
4c#
8r
16g#
16a
=
8b
8e
8e
8e
=
!TODO: trill +
16e
16d#
4e
16dn
16c#
!!LO:LB:g=original
=
8dn
16e
16f#
8e
8d#
=
8c#
8b
8a
8e
=
8a
16c#
16a
8b
8dn
=
8cc#
16e
16c#
8dd#X
8f#
=
8e
16g#
16e
8f#
8a
=
8g#
8f#
8a
8r
=
8g#
16f#
16e
8f#
8d#
!!LO:LB:g=original
=
4e
16g#
16a
16b
16g#
=
8e
8e
8e
8e
=
!TODO: trill +
4e
16g#
16a
16b
16g#
=
8e
(8a
8g#)
(8c#
=
8b)
16e
16d#
8e
8e
=
4b
!TODO: trill +
4d#
=
4.e
==:|
*-
!!!RTL1: G. PH. Telemann: Twelve Fantasias for Flute without Bass TWV 40:2-13
!!!RPN1: D'Arcangelo, Rita
!!!RMM1: Da Vinci Classics
!!!RC#1: DV-C00440
!!!RRD1: 2022
!!!RLC1: Andreaskirche, Berlin, Germany
!!!RDT1: 16 September 2020, 17 September 2020
!!!RT#1: 9
!!!RTL2: The Telemann Files: 12 Fantasies for Solo Flute
!!!RPN2: Choi, Jasmine
!!!RMM2: Austrian Gramophone
!!!RC#2: AG0001
!!!RRD2: February 2015
!!!RLC2: LeFrak Hall, Queens, USA
!!!RDT2: 9 June 2014, 10 June 2014
!!!RT#2: 9
!!!RTL3: Georg Philipp Telemann: Twelve Fantasies for Flute
!!!RPN3: Robertello, Thomas
!!!RMM3: Delos
!!!RC#3: DE3396
!!!RRD3: 1 June 2009
!!!RLC3: Clear Creek Recording, Keene, California
!!!RDT3: Unknown
!!!RT#3: 9
